lib/brands/icons/ios.svg

<svg xmlns="http://www.w3.org/2000/svg" fill="none" aria-hidden="true" viewBox="0 0 48 48"><g id="ios-Icon"><g id="Group"><path id="bg" fill="#283544" d="M42 24C42 33.936 33.945 42 24 42C14.055 42 6 33.936 6 24C6 14.055 14.055 6 24 6C33.945 6 42 14.055 42 24Z"/><g id="ios"><path fill="white" d="M12.5392 30.222H14.5052V21.0998H12.5392V30.222ZM13.5183 19.9036C14.1262 19.9036 14.6158 19.3873 14.6158 18.7418C14.6158 18.0792 14.1262 17.5714 13.5183 17.5714C12.9182 17.5714 12.4287 18.0792 12.4287 18.7418C12.4287 19.3873 12.9182 19.9036 13.5183 19.9036Z"/><path fill="white" d="M21.3743 17.5973C18.0503 17.5973 15.9659 20.0671 15.9659 24.0172C15.9659 27.9673 18.0503 30.4286 21.3743 30.4286C24.6904 30.4286 26.7748 27.9673 26.7748 24.0172C26.7748 20.0671 24.6904 17.5973 21.3743 17.5973ZM21.3743 19.4905C23.4034 19.4905 24.6983 21.2461 24.6983 24.0172C24.6983 26.7797 23.4034 28.5353 21.3743 28.5353C19.3372 28.5353 18.0503 26.7797 18.0503 24.0172C18.0503 21.2461 19.3372 19.4905 21.3743 19.4905Z"/><path fill="white" d="M27.9354 26.7281C28.0223 29.0172 29.7435 30.4286 32.3648 30.4286C35.1203 30.4286 36.8573 28.9484 36.8573 26.5904C36.8573 24.7401 35.8783 23.6988 33.5649 23.1222L32.2542 22.7952C30.8567 22.4337 30.2804 21.9518 30.2804 21.1257C30.2804 20.0929 31.1489 19.4045 32.4358 19.4045C33.7386 19.4045 34.6308 20.1016 34.7255 21.2633H36.6678C36.6204 19.0775 34.9624 17.5973 32.4516 17.5973C29.9724 17.5973 28.2118 19.0861 28.2118 21.2892C28.2118 23.062 29.2066 24.1635 31.3068 24.6885L32.7832 25.0671C34.2202 25.4372 34.8045 25.9535 34.8045 26.8485C34.8045 27.8812 33.8491 28.6214 32.4753 28.6214C31.0857 28.6214 30.0356 27.8726 29.9093 26.7281H27.9354Z"/></g></g></g></svg>

<svg xmlns="http://www.w3.org/2000/svg" fill="none" aria-hidden="true" viewBox="0 0 48 48"><path fill="#283544" d="M42 24c0 9.936-8.055 18-18 18S6 33.936 6 24c0-9.945 8.055-18 18-18s18 8.055 18 18Z"/><path fill="#fff" d="M12.54 30.222h1.965V21.1H12.54v9.122Zm.978-10.318c.608 0 1.098-.517 1.098-1.162 0-.663-.49-1.17-1.098-1.17-.6 0-1.09.507-1.09 1.17 0 .645.49 1.162 1.09 1.162Zm7.856-2.307c-3.324 0-5.408 2.47-5.408 6.42 0 3.95 2.084 6.412 5.408 6.412 3.316 0 5.4-2.462 5.4-6.412 0-3.95-2.084-6.42-5.4-6.42Zm0 1.893c2.03 0 3.324 1.756 3.324 4.527 0 2.763-1.295 4.518-3.324 4.518-2.037 0-3.324-1.755-3.324-4.518 0-2.77 1.287-4.526 3.324-4.526Zm6.561 7.238c.087 2.29 1.809 3.7 4.43 3.7 2.755 0 4.492-1.48 4.492-3.838 0-1.85-.979-2.891-3.292-3.468l-1.31-.327c-1.398-.361-1.975-.843-1.975-1.67 0-1.032.869-1.72 2.156-1.72 1.303 0 2.195.697 2.29 1.858h1.942c-.048-2.186-1.706-3.666-4.216-3.666-2.48 0-4.24 1.49-4.24 3.692 0 1.773.995 2.874 3.095 3.4l1.476.378c1.437.37 2.021.886 2.021 1.782 0 1.032-.955 1.772-2.329 1.772-1.39 0-2.44-.748-2.566-1.893h-1.974Z"/></svg>
